icons/line/rewind.svg

<svg width="24" height="24" viewBox="0 0 24 24" fill="none" xmlns="http://www.w3.org/2000/svg">
<path d="M11 12L18.2 17.4C18.5296 17.6472 19 17.412 19 17V7C19 6.58798 18.5296 6.35279 18.2 6.6L11 12ZM11 12V7C11 6.58798 10.5296 6.35279 10.2 6.6L3.53333 11.6C3.26667 11.8 3.26667 12.2 3.53333 12.4L10.2 17.4C10.5296 17.6472 11 17.412 11 17V12Z" stroke="currentColor" stroke-width="2" stroke-linecap="round" stroke-linejoin="round"/>
</svg>

<svg width="24" height="24" fill="none" xmlns="http://www.w3.org/2000/svg"><path d="M11 12l7.2 5.4a.5.5 0 00.8-.4V7a.5.5 0 00-.8-.4L11 12zm0 0V7a.5.5 0 00-.8-.4l-6.667 5a.5.5 0 000 .8l6.667 5a.5.5 0 00.8-.4v-5z" stroke="currentColor" stroke-width="2" stroke-linecap="round" stroke-linejoin="round"/></svg>
